X: 29587
T: Nóra Críona
R: jig
M: 6/8
K: Cmajor
G|:c2c c2d|e2c g2e|c2c c2e|d2e fed|
c2c c2d|e2c g2e|d2a a^ga|d2e fed:|
|:g2g g2f|e2f g2e|g2g g2e|d2e fed|
g2g g2f|e2f g2e|d2a a^ga|d2e fed:|

